X: 9391
T: Dandy Dancer, The
R: jig
M: 6/8
K: Amajor
e/d/|c2A AAA|EAA cBA|d2B fBB|gfe dcB|
c2A AEA|EAA c2A|dcB gfg|a3- a2:|
|:g|aec Ace|a3 edc|dBB f3|gfe dcB|
aec Ace|aaa edc|dcB gfg|a3- a2:|

